images/skills/3-skills-backend-md.svg

<?xml version="1.0" encoding="UTF-8" standalone="no"?>
<svg width="210px" height="163px" viewBox="0 0 210 163" version="1.1" xmlns="http://www.w3.org/2000/svg" xmlns:xlink="http://www.w3.org/1999/xlink" xmlns:sketch="http://www.bohemiancoding.com/sketch/ns">
    <!-- Generator: Sketch 3.2.2 (9983) - http://www.bohemiancoding.com/sketch -->
    <title>backend</title>
    <desc>Created with Sketch.</desc>
    <defs></defs>
    <g id="Medium" stroke="none" stroke-width="1" fill="none" fill-rule="evenodd" sketch:type="MSPage">
        <g id="Group" sketch:type="MSLayerGroup" fill="#FFFFFF">
            <g id="backend" sketch:type="MSShapeGroup">
                <path d="M123.0905,106.426462 L130.2575,113.791052 L138.2985,105.725311 L130.957,98.5362585 C130.4325,97.8346062 130.2575,96.9579169 130.782,96.2567662 C132.3555,93.45116 133.7535,87.8028338 134.278,85.69888 C134.453,84.9972277 135.152,84.2584615 136.026,84.2584615 L146.5,84.2584615 L146.5,76.7353846 L136.026,76.7353846 C135.152,76.7353846 134.453,76.1505908 134.278,75.2739015 C133.7535,73.3454862 132.3555,67.7929538 130.782,64.9873477 C130.2575,64.2856954 130.4325,63.4385969 130.957,62.7369446 L138.2985,55.5624369 L130.2575,47.5042185 L123.0905,54.87232 C122.3915,55.3984338 121.5175,55.5754769 120.818,55.0493631 C118.371,53.64656 113.6855,52.4202985 110.364,51.5436092 C109.665,51.3680708 109,50.6679231 109,49.7907323 L109,39.6215385 L101.5,39.6215385 L101.5,49.7907323 C101.5,50.6679231 100.8455,51.3690738 99.9715,51.5441108 C98.0485,52.0702246 92.4775,53.4730277 89.6805,55.0513692 C88.9815,55.5774831 88.1185,55.4019446 87.419,54.8758308 L80.258,47.5117415 L72.2195,55.5774831 L79.563,62.7660338 C80.087,63.4676862 80.263,64.3443754 79.7385,65.0455262 C78.165,67.8511323 76.767,73.3454862 76.2425,75.44944 C76.068,76.1505908 75.369,76.7353846 74.495,76.7353846 L64,76.7353846 L64,84.2584615 L74.495,84.2584615 C75.369,84.2584615 76.068,84.9972277 76.243,85.69888 C76.7675,87.8028338 78.166,93.4326031 79.739,96.2377077 C80.2635,96.93936 80.0885,97.8255785 79.564,98.5267292 L72.2225,105.720295 L80.2635,113.788545 L87.4305,106.425458 C88.1295,105.899345 89.0035,105.724809 89.703,106.250422 C92.5,107.828763 98.0485,109.231566 100.1465,109.75768 C100.8455,109.933218 101.5,110.634871 101.5,111.51156 L101.5,121.873846 L109,121.873846 L109,111.51156 C109,110.634871 109.665,109.933218 110.364,109.758182 C112.462,109.232068 118.0385,107.829265 120.8355,106.251425 C121.5345,105.725311 122.3915,105.900348 123.0905,106.426462 L123.0905,106.426462 Z M105.2605,99.4129477 C94.947,99.4129477 86.5565,90.9966308 86.5565,80.6513969 C86.5565,70.3061631 94.947,61.8893446 105.2605,61.8893446 C115.574,61.8893446 123.9645,70.3061631 123.9645,80.6513969 C123.9645,90.9966308 115.574,99.4129477 105.2605,99.4129477 L105.2605,99.4129477 Z" id="Fill-1"></path>
                <path d="M102.5,156.563255 L40.253,120.632037 C39.478,120.184163 39,119.355622 39,118.458369 L39,44.8505785 C39,43.9533262 39.478,43.1247846 40.253,42.6769108 L102.5,6.74569231 L102.5,0 L0,0 L0,163 L102.5,163 L102.5,156.563255" id="Fill-2"></path>
                <path d="M105.2605,65.7471785 C97.0445,65.7471785 90.402,72.4101169 90.402,80.6513969 C90.402,88.8921754 97.0445,95.5551138 105.2605,95.5551138 C113.4765,95.5551138 120.119,88.8921754 120.119,80.6513969 C120.119,72.4101169 113.4765,65.7471785 105.2605,65.7471785" id="Fill-3"></path>
                <path d="M107.5,0 L107.5,8.19614154 C107.5,9.09339385 107.022,9.92193538 106.247,10.3698092 L44,46.3010277 L44,117.007418 L106.247,152.939138 C107.022,153.387012 107.5,154.215554 107.5,155.112806 L107.5,163 L210,163 L210,0 L107.5,0 L107.5,0 Z M99.667,125.384615 C98.618,125.384615 97.5,124.6624 97.5,123.610172 L97.5,112.914363 C95,112.212711 91.504,111.336022 89.0565,110.108757 L81.426,117.648385 C80.727,118.350037 79.5335,118.350037 78.8345,117.648385 L68.3615,107.128114 C68.012,106.777037 67.8445,106.251425 67.8445,105.725311 C67.8445,105.199197 68.0235,104.848622 68.373,104.498046 L75.8915,96.8225015 C74.668,94.3679723 73.7955,91.28 73.0965,88.2707692 L62.4335,88.2707692 C61.4515,88.2707692 60.5,87.4226677 60.5,86.4612185 L60.5,74.8410738 C60.5,73.8801262 61.4515,73.2246154 62.4335,73.2246154 L73.0965,73.2246154 C73.7955,70.2153846 74.6695,67.0311169 75.8935,64.5760862 L68.3765,56.8328338 C67.6775,56.1316831 67.6775,54.8898738 68.3765,54.1887231 L78.865,43.6609292 C79.564,42.9597785 80.788,42.9562677 81.487,43.6574185 L89.0565,51.1955415 C91.504,49.9682769 95,49.0895815 97.5,48.3884308 L97.5,37.69212 C97.5,36.6403938 98.618,35.6092308 99.667,35.6092308 L110.8545,35.6092308 C111.903,35.6092308 113,36.6403938 113,37.69212 L113,48.3884308 C115.5,49.0895815 119.0065,49.9662708 121.454,51.1935354 L129.0895,43.6539077 C129.789,42.9527569 130.9845,42.9527569 131.684,43.6539077 L142.1585,54.17468 C142.508,54.5252554 142.6755,55.0513692 142.6755,55.5774831 C142.6755,56.1030954 142.4975,56.4541723 142.148,56.8047477 L134.6295,64.5760862 C135.853,67.0311169 136.7255,70.2153846 137.4245,73.2246154 L148.0875,73.2246154 C149.1365,73.2246154 150,73.9879569 150,75.0401846 L150,86.2621077 C150,87.3143354 149.1365,88.2707692 148.0875,88.2707692 L137.4245,88.2707692 C136.7255,91.28 135.8515,94.3679723 134.6275,96.8225015 L142.1445,104.517606 C142.8435,105.219258 142.8435,106.436492 142.1445,107.137643 L131.656,117.6534 C130.957,118.355052 129.733,118.352545 129.034,117.650892 L121.454,110.10976 C119.0065,111.337526 115.5,112.212711 113,112.914363 L113,123.610172 C113,124.6624 111.903,125.384615 110.8545,125.384615 L99.667,125.384615 L99.667,125.384615 Z M171,118.249729 C171,119.145978 170.5285,119.97452 169.755,120.421892 L120.487,148.930843 L114.5415,152.363874 C114.1745,152.555462 113.7825,152.651757 113.393,152.651757 C112.5285,152.651757 111.6875,152.201877 111.225,151.396406 C110.535,150.196726 110.946,148.663523 112.1415,147.9714 L118.14,144.497243 L166,116.867991 L166,46.2117538 L112.6465,15.3360431 C111.4525,14.6434185 111.045,13.1112185 111.7345,11.91204 C112.4245,10.7128615 113.9535,10.3000954 115.1505,10.9932215 L169.754,42.5911477 C170.5275,43.0390215 171,43.8670615 171,44.7633108 L171,118.249729 L171,118.249729 Z" id="Fill-4"></path>
            </g>
        </g>
    </g>
</svg>

<svg width="210" height="163" viewBox="0 0 210 163" xmlns="http://www.w3.org/2000/svg"><title>backend</title><desc>Created with Sketch.</desc><g fill="#fff"><path d="M123.09 106.426l7.167 7.365 8.04-8.065-7.34-7.19c-.524-.7-.7-1.577-.175-2.278 1.573-2.806 2.97-8.454 3.496-10.558.175-.703.874-1.442 1.748-1.442H146.5v-7.523h-10.474c-.874 0-1.573-.584-1.748-1.46-.524-1.93-1.922-7.482-3.496-10.288-.525-.7-.35-1.548.175-2.25l7.34-7.175-8.04-8.058-7.166 7.368c-.7.526-1.573.703-2.272.177-2.447-1.403-7.132-2.63-10.454-3.506-.7-.176-1.364-.876-1.364-1.753V39.623h-7.5v10.17c0 .876-.654 1.577-1.528 1.752-1.923.526-7.494 1.93-10.291 3.507-.7.527-1.562.352-2.26-.174l-7.162-7.364-8.038 8.065 7.343 7.19c.524.7.7 1.577.175 2.28-1.573 2.804-2.97 8.298-3.495 10.402-.175.7-.874 1.285-1.748 1.285H64v7.523h10.495c.874 0 1.573.74 1.748 1.44.525 2.105 1.923 7.735 3.496 10.54.523.7.35 1.588-.176 2.29l-7.34 7.192 8.04 8.07 7.166-7.365c.7-.526 1.573-.7 2.273-.175 2.797 1.58 8.346 2.982 10.444 3.508.698.175 1.353.877 1.353 1.754v10.362h7.5v-10.362c0-.877.665-1.58 1.364-1.754 2.098-.526 7.674-1.93 10.47-3.507.7-.525 1.557-.35 2.257.176zm-17.83-7.013c-10.313 0-18.704-8.416-18.704-18.762 0-10.344 8.39-18.76 18.704-18.76s18.704 8.416 18.704 18.76c0 10.347-8.39 18.763-18.704 18.763z"/><path d="M102.5 156.563l-62.247-35.93c-.775-.45-1.253-1.277-1.253-2.175V44.85c0-.897.478-1.725 1.253-2.173L102.5 6.747V0H0v163h102.5v-6.437"/><path d="M105.26 65.747c-8.216 0-14.858 6.663-14.858 14.904 0 8.242 6.642 14.905 14.858 14.905 8.216 0 14.86-6.663 14.86-14.904 0-8.24-6.644-14.903-14.86-14.903"/><path d="M107.5 0v8.196c0 .897-.478 1.726-1.253 2.174L44 46.3v70.707l62.247 35.932c.775.447 1.253 1.276 1.253 2.173V163H210V0H107.5zm-7.833 125.385c-1.05 0-2.167-.723-2.167-1.775v-10.696c-2.5-.7-5.996-1.578-8.444-2.805l-7.63 7.538c-.7.702-1.892.702-2.59 0l-10.474-10.52c-.35-.35-.517-.877-.517-1.403s.178-.876.528-1.227l7.518-7.675c-1.222-2.455-2.094-5.543-2.793-8.552H62.434c-.982 0-1.934-.847-1.934-1.81V74.84c0-.96.952-1.615 1.934-1.615h10.663c.7-3.01 1.573-6.194 2.797-8.65l-7.518-7.742c-.7-.7-.7-1.943 0-2.644l10.49-10.53c.698-.7 1.922-.704 2.62-.003l7.57 7.54c2.448-1.23 5.944-2.107 8.444-2.81V37.693c0-1.052 1.118-2.083 2.167-2.083h11.188c1.048 0 2.145 1.03 2.145 2.082v10.696c2.5.702 6.007 1.578 8.454 2.806l7.635-7.54c.7-.7 1.894-.7 2.594 0l10.475 10.52c.348.35.516.877.516 1.403s-.178.877-.528 1.228l-7.518 7.77c1.223 2.456 2.096 5.64 2.794 8.65h10.663c1.05 0 1.913.763 1.913 1.815v11.222c0 1.052-.863 2.01-1.912 2.01h-10.663c-.7 3.008-1.574 6.096-2.798 8.55l7.517 7.696c.7.7.7 1.918 0 2.62l-10.488 10.515c-.7.702-1.923.7-2.622-.002l-7.58-7.54c-2.447 1.228-5.954 2.103-8.454 2.804v10.696c0 1.052-1.097 1.775-2.145 1.775H99.666zM171 118.25c0 .896-.47 1.725-1.245 2.172l-49.268 28.51-5.945 3.432c-.368.19-.76.288-1.15.288-.864 0-1.704-.45-2.167-1.256-.69-1.2-.28-2.732.916-3.425l6-3.473 47.86-27.63V46.213l-53.353-30.876c-1.195-.693-1.602-2.225-.913-3.424.69-1.2 2.22-1.612 3.416-.92l54.604 31.6c.774.447 1.246 1.275 1.246 2.17v73.488z"/></g></svg>
